resources/svg/text-spacing.svg

<svg xmlns="http://www.w3.org/2000/svg" viewBox="0 0 24 24" fill="currentColor">
    <g>
        <path fill="none" d="M0 0h24v24H0z"/>
        <path d="M7 17h10v-2.5l3.5 3.5-3.5 3.5V19H7v2.5L3.5 18 7 14.5V17zm6-11v9h-2V6H5V4h14v2h-6z"/>
    </g>
</svg>

<svg fill="currentColor" viewBox="0 0 24 24" xmlns="http://www.w3.org/2000/svg"><path d="M7 17H17V14.5L20.5 18L17 21.5V19H7V21.5L3.5 18L7 14.5V17ZM13 6V15H11V6H5V4H19V6H13Z"/></svg>
